assets/luts/GSG_LUT_Cinematic_Desert_Apocolypse.cube
# GSG LUTs 1.0
# Copyright (c) 2016-2020 Greyscalegorilla
# See EULA for licensing and distribution information
# Converted by Briz LUT Converter
LUT_3D_SIZE 5
DOMAIN_MIN 0.000000 0.000000 0.000000
DOMAIN_MAX 0.903226 0.903226 0.903226
0.033944 0.041514 0.037851
0.154295 0.041514 0.037851
0.359282 0.041514 0.037851
0.799480 0.041514 0.037851
0.929292 0.041514 0.037851
0.033944 0.104368 0.037851
0.154295 0.104368 0.037851
0.359282 0.104368 0.037851
0.799480 0.104368 0.037851
0.929292 0.104368 0.037851
0.033944 0.275545 0.037851
0.154295 0.275545 0.037851
0.359282 0.275545 0.037851
0.799480 0.275545 0.037851
0.929292 0.275545 0.037851
0.033944 0.532687 0.037851
0.154295 0.532687 0.037851
0.359282 0.532687 0.037851
0.799480 0.532687 0.037851
0.929292 0.532687 0.037851
0.033944 0.707157 0.037851
0.154295 0.707157 0.037851
0.359282 0.707157 0.037851
0.799480 0.707157 0.037851
0.929292 0.707157 0.037851
0.033944 0.041514 0.088794
0.154295 0.041514 0.088794
0.359282 0.041514 0.088794
0.799480 0.041514 0.088794
0.929292 0.041514 0.088794
0.033944 0.104368 0.088794
0.154295 0.104368 0.088794
0.359282 0.104368 0.088794
0.799480 0.104368 0.088794
0.929292 0.104368 0.088794
0.033944 0.275545 0.088794
0.154295 0.275545 0.088794
0.359282 0.275545 0.088794
0.799480 0.275545 0.088794
0.929292 0.275545 0.088794
0.033944 0.532687 0.088794
0.154295 0.532687 0.088794
0.359282 0.532687 0.088794
0.799480 0.532687 0.088794
0.929292 0.532687 0.088794
0.033944 0.707157 0.088794
0.154295 0.707157 0.088794
0.359282 0.707157 0.088794
0.799480 0.707157 0.088794
0.929292 0.707157 0.088794
0.033944 0.041514 0.185135
0.154295 0.041514 0.185135
0.359282 0.041514 0.185135
0.799480 0.041514 0.185135
0.929292 0.041514 0.185135
0.033944 0.104368 0.185135
0.154295 0.104368 0.185135
0.359282 0.104368 0.185135
0.799480 0.104368 0.185135
0.929292 0.104368 0.185135
0.033944 0.275545 0.185135
0.154295 0.275545 0.185135
0.359282 0.275545 0.185135
0.799480 0.275545 0.185135
0.929292 0.275545 0.185135
0.033944 0.532687 0.185135
0.154295 0.532687 0.185135
0.359282 0.532687 0.185135
0.799480 0.532687 0.185135
0.929292 0.532687 0.185135
0.033944 0.707157 0.185135
0.154295 0.707157 0.185135
0.359282 0.707157 0.185135
0.799480 0.707157 0.185135
0.929292 0.707157 0.185135
0.033944 0.041514 0.329064
0.154295 0.041514 0.329064
0.359282 0.041514 0.329064
0.799480 0.041514 0.329064
0.929292 0.041514 0.329064
0.033944 0.104368 0.329064
0.154295 0.104368 0.329064
0.359282 0.104368 0.329064
0.799480 0.104368 0.329064
0.929292 0.104368 0.329064
0.033944 0.275545 0.329064
0.154295 0.275545 0.329064
0.359282 0.275545 0.329064
0.799480 0.275545 0.329064
0.929292 0.275545 0.329064
0.033944 0.532687 0.329064
0.154295 0.532687 0.329064
0.359282 0.532687 0.329064
0.799480 0.532687 0.329064
0.929292 0.532687 0.329064
0.033944 0.707157 0.329064
0.154295 0.707157 0.329064
0.359282 0.707157 0.329064
0.799480 0.707157 0.329064
0.929292 0.707157 0.329064
0.033944 0.041514 0.533262
0.154295 0.041514 0.533262
0.359282 0.041514 0.533262
0.799480 0.041514 0.533262
0.929292 0.041514 0.533262
0.033944 0.104368 0.533262
0.154295 0.104368 0.533262
0.359282 0.104368 0.533262
0.799480 0.104368 0.533262
0.929292 0.104368 0.533262
0.033944 0.275545 0.533262
0.154295 0.275545 0.533262
0.359282 0.275545 0.533262
0.799480 0.275545 0.533262
0.929292 0.275545 0.533262
0.033944 0.532687 0.533262
0.154295 0.532687 0.533262
0.359282 0.532687 0.533262
0.799480 0.532687 0.533262
0.929292 0.532687 0.533262
0.033944 0.707157 0.533262
0.154295 0.707157 0.533262
0.359282 0.707157 0.533262
0.799480 0.707157 0.533262
0.929292 0.707157 0.533262
