assets/luts/GSG_LUT_Cinematic_Desert_Apocolypse.cube
# GSG LUTs 1.0
# Copyright (c) 2016-2020 Greyscalegorilla
# See EULA for licensing and distribution information
# Converted by Briz LUT Converter
LUT_3D_SIZE 32
0.033944 0.041514 0.037851
0.049707 0.041514 0.037851
0.062295 0.041514 0.037851
0.081831 0.041514 0.037851
0.098216 0.041514 0.037851
0.118130 0.041514 0.037851
0.137335 0.041514 0.037851
0.154295 0.041514 0.037851
0.174209 0.041514 0.037851
0.192989 0.041514 0.037851
0.210130 0.041514 0.037851
0.231431 0.041514 0.037851
0.261334 0.041514 0.037851
0.304439 0.041514 0.037851
0.359282 0.041514 0.037851
0.426838 0.041514 0.037851
0.498681 0.041514 0.037851
0.570523 0.041514 0.037851
0.644634 0.041514 0.037851
0.710930 0.041514 0.037851
0.760747 0.041514 0.037851
0.799480 0.041514 0.037851
0.829808 0.041514 0.037851
0.857718 0.041514 0.037851
0.879649 0.041514 0.037851
0.896609 0.041514 0.037851
0.909260 0.041514 0.037851
0.917917 0.041514 0.037851
0.929292 0.041514 0.037851
0.941368 0.041514 0.037851
0.953232 0.041514 0.037851
0.968987 0.041514 0.037851
0.033944 0.053480 0.037851
0.049707 0.053480 0.037851
0.062295 0.053480 0.037851
0.081831 0.053480 0.037851
0.098216 0.053480 0.037851
0.118130 0.053480 0.037851
0.137335 0.053480 0.037851
0.154295 0.053480 0.037851
0.174209 0.053480 0.037851
0.192989 0.053480 0.037851
0.210130 0.053480 0.037851
0.231431 0.053480 0.037851
0.261334 0.053480 0.037851
0.304439 0.053480 0.037851
0.359282 0.053480 0.037851
0.426838 0.053480 0.037851
0.498681 0.053480 0.037851
0.570523 0.053480 0.037851
0.644634 0.053480 0.037851
0.710930 0.053480 0.037851
0.760747 0.053480 0.037851
0.799480 0.053480 0.037851
0.829808 0.053480 0.037851
0.857718 0.053480 0.037851
0.879649 0.053480 0.037851
0.896609 0.053480 0.037851
0.909260 0.053480 0.037851
0.917917 0.053480 0.037851
0.929292 0.053480 0.037851
0.941368 0.053480 0.037851
0.953232 0.053480 0.037851
0.968987 0.053480 0.037851
0.033944 0.061310 0.037851
0.049707 0.061310 0.037851
0.062295 0.061310 0.037851
0.081831 0.061310 0.037851
0.098216 0.061310 0.037851
0.118130 0.061310 0.037851
0.137335 0.061310 0.037851
0.154295 0.061310 0.037851
0.174209 0.061310 0.037851
0.192989 0.061310 0.037851
0.210130 0.061310 0.037851
0.231431 0.061310 0.037851
0.261334 0.061310 0.037851
0.304439 0.061310 0.037851
0.359282 0.061310 0.037851
0.426838 0.061310 0.037851
0.498681 0.061310 0.037851
0.570523 0.061310 0.037851
0.644634 0.061310 0.037851
0.710930 0.061310 0.037851
0.760747 0.061310 0.037851
0.799480 0.061310 0.037851
0.829808 0.061310 0.037851
0.857718 0.061310 0.037851
0.879649 0.061310 0.037851
0.896609 0.061310 0.037851
0.909260 0.061310 0.037851
0.917917 0.061310 0.037851
0.929292 0.061310 0.037851
0.941368 0.061310 0.037851
0.953232 0.061310 0.037851
0.968987 0.061310 0.037851
0.033944 0.069755 0.037851
0.049707 0.069755 0.037851
0.062295 0.069755 0.037851
0.081831 0.069755 0.037851
0.098216 0.069755 0.037851
0.118130 0.069755 0.037851
0.137335 0.069755 0.037851
0.154295 0.069755 0.037851
0.174209 0.069755 0.037851
0.192989 0.069755 0.037851
0.210130 0.069755 0.037851
0.231431 0.069755 0.037851
0.261334 0.069755 0.037851
0.304439 0.069755 0.037851
0.359282 0.069755 0.037851
0.426838 0.069755 0.037851
0.498681 0.069755 0.037851
0.570523 0.069755 0.037851
0.644634 0.069755 0.037851
0.710930 0.069755 0.037851
0.760747 0.069755 0.037851
0.799480 0.069755 0.037851
0.829808 0.069755 0.037851
0.857718 0.069755 0.037851
0.879649 0.069755 0.037851
0.896609 0.069755 0.037851
0.909260 0.069755 0.037851
0.917917 0.069755 0.037851
0.929292 0.069755 0.037851
0.941368 0.069755 0.037851
0.953232 0.069755 0.037851
0.968987 0.069755 0.037851
0.033944 0.081319 0.037851
0.049707 0.081319 0.037851
0.062295 0.081319 0.037851
0.081831 0.081319 0.037851
0.098216 0.081319 0.037851
0.118130 0.081319 0.037851
0.137335 0.081319 0.037851
0.154295 0.081319 0.037851
0.174209 0.081319 0.037851
0.192989 0.081319 0.037851
0.210130 0.081319 0.037851
0.231431 0.081319 0.037851
0.261334 0.081319 0.037851
0.304439 0.081319 0.037851
0.359282 0.081319 0.037851
0.426838 0.081319 0.037851
0.498681 0.081319 0.037851
0.570523 0.081319 0.037851
0.644634 0.081319 0.037851
0.710930 0.081319 0.037851
0.760747 0.081319 0.037851
0.799480 0.081319 0.037851
0.829808 0.081319 0.037851
0.857718 0.081319 0.037851
0.879649 0.081319 0.037851
0.896609 0.081319 0.037851
0.909260 0.081319 0.037851
0.917917 0.081319 0.037851
0.929292 0.081319 0.037851
0.941368 0.081319 0.037851
0.953232 0.081319 0.037851
0.968987 0.081319 0.037851
0.033944 0.089172 0.037851
0.049707 0.089172 0.037851
0.062295 0.089172 0.037851
0.081831 0.089172 0.037851
0.098216 0.089172 0.037851
0.118130 0.089172 0.037851
0.137335 0.089172 0.037851
0.154295 0.089172 0.037851
0.174209 0.089172 0.037851
0.192989 0.089172 0.037851
0.210130 0.089172 0.037851
0.231431 0.089172 0.037851
0.261334 0.089172 0.037851
0.304439 0.089172 0.037851
0.359282 0.089172 0.037851
0.426838 0.089172 0.037851
0.498681 0.089172 0.037851
0.570523 0.089172 0.037851
0.644634 0.089172 0.037851
0.710930 0.089172 0.037851
0.760747 0.089172 0.037851
0.799480 0.089172 0.037851
0.829808 0.089172 0.037851
0.857718 0.089172 0.037851
0.879649 0.089172 0.037851
0.896609 0.089172 0.037851
0.909260 0.089172 0.037851
0.917917 0.089172 0.037851
0.929292 0.089172 0.037851
0.941368 0.089172 0.037851
0.953232 0.089172 0.037851
0.968987 0.089172 0.037851
0.033944 0.097239 0.037851
0.049707 0.097239 0.037851
0.062295 0.097239 0.037851
0.081831 0.097239 0.037851
0.098216 0.097239 0.037851
0.118130 0.097239 0.037851
0.137335 0.097239 0.037851
0.154295 0.097239 0.037851
0.174209 0.097239 0.037851
0.192989 0.097239 0.037851
0.210130 0.097239 0.037851
0.231431 0.097239 0.037851
0.261334 0.097239 0.037851
0.304439 0.097239 0.037851
0.359282 0.097239 0.037851
0.426838 0.097239 0.037851
0.498681 0.097239 0.037851
0.570523 0.097239 0.037851
0.644634 0.097239 0.037851
0.710930 0.097239 0.037851
0.760747 0.097239 0.037851
0.799480 0.097239 0.037851
0.829808 0.097239 0.037851
0.857718 0.097239 0.037851
0.879649 0.097239 0.037851
0.896609 0.097239 0.037851
0.909260 0.097239 0.037851
0.917917 0.097239 0.037851
0.929292 0.097239 0.037851
0.941368 0.097239 0.037851
0.953232 0.097239 0.037851
0.968987 0.097239 0.037851
0.033944 0.104368 0.037851
0.049707 0.104368 0.037851
0.062295 0.104368 0.037851
0.081831 0.104368 0.037851
0.098216 0.104368 0.037851
0.118130 0.104368 0.037851
0.137335 0.104368 0.037851
0.154295 0.104368 0.037851
0.174209 0.104368 0.037851
0.192989 0.104368 0.037851
0.210130 0.104368 0.037851
0.231431 0.104368 0.037851
0.261334 0.104368 0.037851
0.304439 0.104368 0.037851
0.359282 0.104368 0.037851
0.426838 0.104368 0.037851
0.498681 0.104368 0.037851
0.570523 0.104368 0.037851
0.644634 0.104368 0.037851
0.710930 0.104368 0.037851
0.760747 0.104368 0.037851
0.799480 0.104368 0.037851
0.829808 0.104368 0.037851
0.857718 0.104368 0.037851
0.879649 0.104368 0.037851
0.896609 0.104368 0.037851
0.909260 0.104368 0.037851
0.917917 0.104368 0.037851
0.929292 0.104368 0.037851
0.941368 0.104368 0.037851
0.953232 0.104368 0.037851
0.968987 0.104368 0.037851
0.033944 0.110229 0.037851
0.049707 0.110229 0.037851
0.062295 0.110229 0.037851
0.081831 0.110229 0.037851
0.098216 0.110229 0.037851
0.118130 0.110229 0.037851
0.137335 0.110229 0.037851
0.154295 0.110229 0.037851
0.174209 0.110229 0.037851
0.192989 0.110229 0.037851
0.210130 0.110229 0.037851
0.231431 0.110229 0.037851
0.261334 0.110229 0.037851
0.304439 0.110229 0.037851
0.359282 0.110229 0.037851
0.426838 0.110229 0.037851
0.498681 0.110229 0.037851
0.570523 0.110229 0.037851
0.644634 0.110229 0.037851
0.710930 0.110229 0.037851
0.760747 0.110229 0.037851
0.799480 0.110229 0.037851
0.829808 0.110229 0.037851
0.857718 0.110229 0.037851
0.879649 0.110229 0.037851
0.896609 0.110229 0.037851
0.909260 0.110229 0.037851
0.917917 0.110229 0.037851
0.929292 0.110229 0.037851
0.941368 0.110229 0.037851
0.953232 0.110229 0.037851
0.968987 0.110229 0.037851
0.033944 0.122258 0.037851
0.049707 0.122258 0.037851
0.062295 0.122258 0.037851
0.081831 0.122258 0.037851
0.098216 0.122258 0.037851
0.118130 0.122258 0.037851
0.137335 0.122258 0.037851
0.154295 0.122258 0.037851
0.174209 0.122258 0.037851
0.192989 0.122258 0.037851
0.210130 0.122258 0.037851
0.231431 0.122258 0.037851
0.261334 0.122258 0.037851
0.304439 0.122258 0.037851
0.359282 0.122258 0.037851
0.426838 0.122258 0.037851
0.498681 0.122258 0.037851
0.570523 0.122258 0.037851
0.644634 0.122258 0.037851
0.710930 0.122258 0.037851
0.760747 0.122258 0.037851
0.799480 0.122258 0.037851
0.829808 0.122258 0.037851
0.857718 0.122258 0.037851
0.879649 0.122258 0.037851
0.896609 0.122258 0.037851
0.909260 0.122258 0.037851
0.917917 0.122258 0.037851
0.929292 0.122258 0.037851
0.941368 0.122258 0.037851
0.953232 0.122258 0.037851
0.968987 0.122258 0.037851
0.033944 0.136626 0.037851
0.049707 0.136626 0.037851
0.062295 0.136626 0.037851
0.081831 0.136626 0.037851
0.098216 0.136626 0.037851
0.118130 0.136626 0.037851
0.137335 0.136626 0.037851
0.154295 0.136626 0.037851
0.174209 0.136626 0.037851
0.192989 0.136626 0.037851
0.210130 0.136626 0.037851
0.231431 0.136626 0.037851
0.261334 0.136626 0.037851
0.304439 0.136626 0.037851
0.359282 0.136626 0.037851
0.426838 0.136626 0.037851
0.498681 0.136626 0.037851
0.570523 0.136626 0.037851
0.644634 0.136626 0.037851
0.710930 0.136626 0.037851
0.760747 0.136626 0.037851
0.799480 0.136626 0.037851
0.829808 0.136626 0.037851
0.857718 0.136626 0.037851
0.879649 0.136626 0.037851
0.896609 0.136626 0.037851
0.909260 0.136626 0.037851
0.917917 0.136626 0.037851
0.929292 0.136626 0.037851
0.941368 0.136626 0.037851
0.953232 0.136626 0.037851
0.968987 0.136626 0.037851
0.033944 0.162086 0.037851
0.049707 0.162086 0.037851
0.062295 0.162086 0.037851
0.081831 0.162086 0.037851
0.098216 0.162086 0.037851
0.118130 0.162086 0.037851
0.137335 0.162086 0.037851
0.154295 0.162086 0.037851
0.174209 0.162086 0.037851
0.192989 0.162086 0.037851
0.210130 0.162086 0.037851
0.231431 0.162086 0.037851
0.261334 0.162086 0.037851
0.304439 0.162086 0.037851
0.359282 0.162086 0.037851
0.426838 0.162086 0.037851
0.498681 0.162086 0.037851
0.570523 0.162086 0.037851
0.644634 0.162086 0.037851
0.710930 0.162086 0.037851
0.760747 0.162086 0.037851
0.799480 0.162086 0.037851
0.829808 0.162086 0.037851
0.857718 0.162086 0.037851
0.879649 0.162086 0.037851
0.896609 0.162086 0.037851
0.909260 0.162086 0.037851
0.917917 0.162086 0.037851
0.929292 0.162086 0.037851
0.941368 0.162086 0.037851
0.953232 0.162086 0.037851
0.968987 0.162086 0.037851
0.033944 0.202576 0.037851
0.049707 0.202576 0.037851
0.062295 0.202576 0.037851
0.081831 0.202576 0.037851
0.098216 0.202576 0.037851
0.118130 0.202576 0.037851
0.137335 0.202576 0.037851
0.154295 0.202576 0.037851
0.174209 0.202576 0.037851
0.192989 0.202576 0.037851
0.210130 0.202576 0.037851
0.231431 0.202576 0.037851
0.261334 0.202576 0.037851
0.304439 0.202576 0.037851
0.359282 0.202576 0.037851
0.426838 0.202576 0.037851
0.498681 0.202576 0.037851
0.570523 0.202576 0.037851
0.644634 0.202576 0.037851
0.710930 0.202576 0.037851
0.760747 0.202576 0.037851
0.799480 0.202576 0.037851
0.829808 0.202576 0.037851
0.857718 0.202576 0.037851
0.879649 0.202576 0.037851
0.896609 0.202576 0.037851
0.909260 0.202576 0.037851
0.917917 0.202576 0.037851
0.929292 0.202576 0.037851
0.941368 0.202576 0.037851
0.953232 0.202576 0.037851
0.968987 0.202576 0.037851
0.033944 0.242381 0.037851
0.049707 0.242381 0.037851
0.062295 0.242381 0.037851
0.081831 0.242381 0.037851
0.098216 0.242381 0.037851
0.118130 0.242381 0.037851
0.137335 0.242381 0.037851
0.154295 0.242381 0.037851
0.174209 0.242381 0.037851
0.192989 0.242381 0.037851
0.210130 0.242381 0.037851
0.231431 0.242381 0.037851
0.261334 0.242381 0.037851
0.304439 0.242381 0.037851
0.359282 0.242381 0.037851
0.426838 0.242381 0.037851
0.498681 0.242381 0.037851
0.570523 0.242381 0.037851
0.644634 0.242381 0.037851
0.710930 0.242381 0.037851
0.760747 0.242381 0.037851
0.799480 0.242381 0.037851
0.829808 0.242381 0.037851
0.857718 0.242381 0.037851
0.879649 0.242381 0.037851
0.896609 0.242381 0.037851
0.909260 0.242381 0.037851
0.917917 0.242381 0.037851
0.929292 0.242381 0.037851
0.941368 0.242381 0.037851
0.953232 0.242381 0.037851
0.968987 0.242381 0.037851
0.033944 0.275545 0.037851
0.049707 0.275545 0.037851
0.062295 0.275545 0.037851
0.081831 0.275545 0.037851
0.098216 0.275545 0.037851
0.118130 0.275545 0.037851
0.137335 0.275545 0.037851
0.154295 0.275545 0.037851
0.174209 0.275545 0.037851
0.192989 0.275545 0.037851
0.210130 0.275545 0.037851
0.231431 0.275545 0.037851
0.261334 0.275545 0.037851
0.304439 0.275545 0.037851
0.359282 0.275545 0.037851
0.426838 0.275545 0.037851
0.498681 0.275545 0.037851
0.570523 0.275545 0.037851
0.644634 0.275545 0.037851
0.710930 0.275545 0.037851
0.760747 0.275545 0.037851
0.799480 0.275545 0.037851
0.829808 0.275545 0.037851
0.857718 0.275545 0.037851
0.879649 0.275545 0.037851
0.896609 0.275545 0.037851
0.909260 0.275545 0.037851
0.917917 0.275545 0.037851
0.929292 0.275545 0.037851
0.941368 0.275545 0.037851
0.953232 0.275545 0.037851
0.968987 0.275545 0.037851
0.033944 0.315373 0.037851
0.049707 0.315373 0.037851
0.062295 0.315373 0.037851
0.081831 0.315373 0.037851
0.098216 0.315373 0.037851
0.118130 0.315373 0.037851
0.137335 0.315373 0.037851
0.154295 0.315373 0.037851
0.174209 0.315373 0.037851
0.192989 0.315373 0.037851
0.210130 0.315373 0.037851
0.231431 0.315373 0.037851
0.261334 0.315373 0.037851
0.304439 0.315373 0.037851
0.359282 0.315373 0.037851
0.426838 0.315373 0.037851
0.498681 0.315373 0.037851
0.570523 0.315373 0.037851
0.644634 0.315373 0.037851
0.710930 0.315373 0.037851
0.760747 0.315373 0.037851
0.799480 0.315373 0.037851
0.829808 0.315373 0.037851
0.857718 0.315373 0.037851
0.879649 0.315373 0.037851
0.896609 0.315373 0.037851
0.909260 0.315373 0.037851
0.917917 0.315373 0.037851
0.929292 0.315373 0.037851
0.941368 0.315373 0.037851
0.953232 0.315373 0.037851
0.968987 0.315373 0.037851
0.033944 0.357218 0.037851
0.049707 0.357218 0.037851
0.062295 0.357218 0.037851
0.081831 0.357218 0.037851
0.098216 0.357218 0.037851
0.118130 0.357218 0.037851
0.137335 0.357218 0.037851
0.154295 0.357218 0.037851
0.174209 0.357218 0.037851
0.192989 0.357218 0.037851
0.210130 0.357218 0.037851
0.231431 0.357218 0.037851
0.261334 0.357218 0.037851
0.304439 0.357218 0.037851
0.359282 0.357218 0.037851
0.426838 0.357218 0.037851
0.498681 0.357218 0.037851
0.570523 0.357218 0.037851
0.644634 0.357218 0.037851
0.710930 0.357218 0.037851
0.760747 0.357218 0.037851
0.799480 0.357218 0.037851
0.829808 0.357218 0.037851
0.857718 0.357218 0.037851
0.879649 0.357218 0.037851
0.896609 0.357218 0.037851
0.909260 0.357218 0.037851
0.917917 0.357218 0.037851
0.929292 0.357218 0.037851
0.941368 0.357218 0.037851
0.953232 0.357218 0.037851
0.968987 0.357218 0.037851
0.033944 0.401079 0.037851
0.049707 0.401079 0.037851
0.062295 0.401079 0.037851
0.081831 0.401079 0.037851
0.098216 0.401079 0.037851
0.118130 0.401079 0.037851
0.137335 0.401079 0.037851
0.154295 0.401079 0.037851
0.174209 0.401079 0.037851
0.192989 0.401079 0.037851
0.210130 0.401079 0.037851
0.231431 0.401079 0.037851
0.261334 0.401079 0.037851
0.304439 0.401079 0.037851
0.359282 0.401079 0.037851
0.426838 0.401079 0.037851
0.498681 0.401079 0.037851
0.570523 0.401079 0.037851
0.644634 0.401079 0.037851
0.710930 0.401079 0.037851
0.760747 0.401079 0.037851
0.799480 0.401079 0.037851
0.829808 0.401079 0.037851
0.857718 0.401079 0.037851
0.879649 0.401079 0.037851
0.896609 0.401079 0.037851
0.909260 0.401079 0.037851
0.917917 0.401079 0.037851
0.929292 0.401079 0.037851
0.941368 0.401079 0.037851
0.953232 0.401079 0.037851
0.968987 0.401079 0.037851
0.033944 0.442672 0.037851
0.049707 0.442672 0.037851
0.062295 0.442672 0.037851
0.081831 0.442672 0.037851
0.098216 0.442672 0.037851
0.118130 0.442672 0.037851
0.137335 0.442672 0.037851
0.154295 0.442672 0.037851
0.174209 0.442672 0.037851
0.192989 0.442672 0.037851
0.210130 0.442672 0.037851
0.231431 0.442672 0.037851
0.261334 0.442672 0.037851
0.304439 0.442672 0.037851
0.359282 0.442672 0.037851
0.426838 0.442672 0.037851
0.498681 0.442672 0.037851
0.570523 0.442672 0.037851
0.644634 0.442672 0.037851
0.710930 0.442672 0.037851
0.760747 0.442672 0.037851
0.799480 0.442672 0.037851
0.829808 0.442672 0.037851
0.857718 0.442672 0.037851
0.879649 0.442672 0.037851
0.896609 0.442672 0.037851
0.909260 0.442672 0.037851
0.917917 0.442672 0.037851
0.929292 0.442672 0.037851
0.941368 0.442672 0.037851
0.953232 0.442672 0.037851
0.968987 0.442672 0.037851
0.033944 0.475466 0.037851
0.049707 0.475466 0.037851
0.062295 0.475466 0.037851
0.081831 0.475466 0.037851
0.098216 0.475466 0.037851
0.118130 0.475466 0.037851
0.137335 0.475466 0.037851
0.154295 0.475466 0.037851
0.174209 0.475466 0.037851
0.192989 0.475466 0.037851
0.210130 0.475466 0.037851
0.231431 0.475466 0.037851
0.261334 0.475466 0.037851
0.304439 0.475466 0.037851
0.359282 0.475466 0.037851
0.426838 0.475466 0.037851
0.498681 0.475466 0.037851
0.570523 0.475466 0.037851
0.644634 0.475466 0.037851
0.710930 0.475466 0.037851
0.760747 0.475466 0.037851
0.799480 0.475466 0.037851
0.829808 0.475466 0.037851
0.857718 0.475466 0.037851
0.879649 0.475466 0.037851
0.896609 0.475466 0.037851
0.909260 0.475466 0.037851
0.917917 0.475466 0.037851
0.929292 0.475466 0.037851
0.941368 0.475466 0.037851
0.953232 0.475466 0.037851
0.968987 0.475466 0.037851
0.033944 0.505967 0.037851
0.049707 0.505967 0.037851
0.062295 0.505967 0.037851
0.081831 0.505967 0.037851
0.098216 0.505967 0.037851
0.118130 0.505967 0.037851
0.137335 0.505967 0.037851
0.154295 0.505967 0.037851
0.174209 0.505967 0.037851
0.192989 0.505967 0.037851
0.210130 0.505967 0.037851
0.231431 0.505967 0.037851
0.261334 0.505967 0.037851
0.304439 0.505967 0.037851
0.359282 0.505967 0.037851
0.426838 0.505967 0.037851
0.498681 0.505967 0.037851
0.570523 0.505967 0.037851
0.644634 0.505967 0.037851
0.710930 0.505967 0.037851
0.760747 0.505967 0.037851
0.799480 0.505967 0.037851
0.829808 0.505967 0.037851
0.857718 0.505967 0.037851
0.879649 0.505967 0.037851
0.896609 0.505967 0.037851
0.909260 0.505967 0.037851
0.917917 0.505967 0.037851
0.929292 0.505967 0.037851
0.941368 0.505967 0.037851
0.953232 0.505967 0.037851
0.968987 0.505967 0.037851
0.033944 0.532687 0.037851
0.049707 0.532687 0.037851
0.062295 0.532687 0.037851
0.081831 0.532687 0.037851
0.098216 0.532687 0.037851
0.118130 0.532687 0.037851
0.137335 0.532687 0.037851
0.154295 0.532687 0.037851
0.174209 0.532687 0.037851
0.192989 0.532687 0.037851
0.210130 0.532687 0.037851
0.231431 0.532687 0.037851
0.261334 0.532687 0.037851
0.304439 0.532687 0.037851
0.359282 0.532687 0.037851
0.426838 0.532687 0.037851
0.498681 0.532687 0.037851
0.570523 0.532687 0.037851
0.644634 0.532687 0.037851
0.710930 0.532687 0.037851
0.760747 0.532687 0.037851
0.799480 0.532687 0.037851
0.829808 0.532687 0.037851
0.857718 0.532687 0.037851
0.879649 0.532687 0.037851
0.896609 0.532687 0.037851
0.909260 0.532687 0.037851
0.917917 0.532687 0.037851
0.929292 0.532687 0.037851
0.941368 0.532687 0.037851
0.953232 0.532687 0.037851
0.968987 0.532687 0.037851
0.033944 0.553862 0.037851
0.049707 0.553862 0.037851
0.062295 0.553862 0.037851
0.081831 0.553862 0.037851
0.098216 0.553862 0.037851
0.118130 0.553862 0.037851
0.137335 0.553862 0.037851
0.154295 0.553862 0.037851
0.174209 0.553862 0.037851
0.192989 0.553862 0.037851
0.210130 0.553862 0.037851
0.231431 0.553862 0.037851
0.261334 0.553862 0.037851
0.304439 0.553862 0.037851
0.359282 0.553862 0.037851
0.426838 0.553862 0.037851
0.498681 0.553862 0.037851
0.570523 0.553862 0.037851
0.644634 0.553862 0.037851
0.710930 0.553862 0.037851
0.760747 0.553862 0.037851
0.799480 0.553862 0.037851
0.829808 0.553862 0.037851
0.857718 0.553862 0.037851
0.879649 0.553862 0.037851
0.896609 0.553862 0.037851
0.909260 0.553862 0.037851
0.917917 0.553862 0.037851
0.929292 0.553862 0.037851
0.941368 0.553862 0.037851
0.953232 0.553862 0.037851
0.968987 0.553862 0.037851
0.033944 0.576675 0.037851
0.049707 0.576675 0.037851
0.062295 0.576675 0.037851
0.081831 0.576675 0.037851
0.098216 0.576675 0.037851
0.118130 0.576675 0.037851
0.137335 0.576675 0.037851
0.154295 0.576675 0.037851
0.174209 0.576675 0.037851
0.192989 0.576675 0.037851
0.210130 0.576675 0.037851
0.231431 0.576675 0.037851
0.261334 0.576675 0.037851
0.304439 0.576675 0.037851
0.359282 0.576675 0.037851
0.426838 0.576675 0.037851
0.498681 0.576675 0.037851
0.570523 0.576675 0.037851
0.644634 0.576675 0.037851
0.710930 0.576675 0.037851
0.760747 0.576675 0.037851
0.799480 0.576675 0.037851
0.829808 0.576675 0.037851
0.857718 0.576675 0.037851
0.879649 0.576675 0.037851
0.896609 0.576675 0.037851
0.909260 0.576675 0.037851
0.917917 0.576675 0.037851
0.929292 0.576675 0.037851
0.941368 0.576675 0.037851
0.953232 0.576675 0.037851
0.968987 0.576675 0.037851
0.033944 0.597597 0.037851
0.049707 0.597597 0.037851
0.062295 0.597597 0.037851
0.081831 0.597597 0.037851
0.098216 0.597597 0.037851
0.118130 0.597597 0.037851
0.137335 0.597597 0.037851
0.154295 0.597597 0.037851
0.174209 0.597597 0.037851
0.192989 0.597597 0.037851
0.210130 0.597597 0.037851
0.231431 0.597597 0.037851
0.261334 0.597597 0.037851
0.304439 0.597597 0.037851
0.359282 0.597597 0.037851
0.426838 0.597597 0.037851
0.498681 0.597597 0.037851
0.570523 0.597597 0.037851
0.644634 0.597597 0.037851
0.710930 0.597597 0.037851
0.760747 0.597597 0.037851
0.799480 0.597597 0.037851
0.829808 0.597597 0.037851
0.857718 0.597597 0.037851
0.879649 0.597597 0.037851
0.896609 0.597597 0.037851
0.909260 0.597597 0.037851
0.917917 0.597597 0.037851
0.929292 0.597597 0.037851
0.941368 0.597597 0.037851
0.953232 0.597597 0.037851
0.968987 0.597597 0.037851
0.033944 0.620662 0.037851
0.049707 0.620662 0.037851
0.062295 0.620662 0.037851
0.081831 0.620662 0.037851
0.098216 0.620662 0.037851
0.118130 0.620662 0.037851
0.137335 0.620662 0.037851
0.154295 0.620662 0.037851
0.174209 0.620662 0.037851
0.192989 0.620662 0.037851
0.210130 0.620662 0.037851
0.231431 0.620662 0.037851
0.261334 0.620662 0.037851
0.304439 0.620662 0.037851
0.359282 0.620662 0.037851
0.426838 0.620662 0.037851
0.498681 0.620662 0.037851
0.570523 0.620662 0.037851
0.644634 0.620662 0.037851
0.710930 0.620662 0.037851
0.760747 0.620662 0.037851
0.799480 0.620662 0.037851
0.829808 0.620662 0.037851
0.857718 0.620662 0.037851
0.879649 0.620662 0.037851
0.896609 0.620662 0.037851
0.909260 0.620662 0.037851
0.917917 0.620662 0.037851
0.929292 0.620662 0.037851
0.941368 0.620662 0.037851
0.953232 0.620662 0.037851
0.968987 0.620662 0.037851
0.033944 0.644610 0.037851
0.049707 0.644610 0.037851
0.062295 0.644610 0.037851
0.081831 0.644610 0.037851
0.098216 0.644610 0.037851
0.118130 0.644610 0.037851
0.137335 0.644610 0.037851
0.154295 0.644610 0.037851
0.174209 0.644610 0.037851
0.192989 0.644610 0.037851
0.210130 0.644610 0.037851
0.231431 0.644610 0.037851
0.261334 0.644610 0.037851
0.304439 0.644610 0.037851
0.359282 0.644610 0.037851
0.426838 0.644610 0.037851
0.498681 0.644610 0.037851
0.570523 0.644610 0.037851
0.644634 0.644610 0.037851
0.710930 0.644610 0.037851
0.760747 0.644610 0.037851
0.799480 0.644610 0.037851
0.829808 0.644610 0.037851
0.857718 0.644610 0.037851
0.879649 0.644610 0.037851
0.896609 0.644610 0.037851
0.909260 0.644610 0.037851
0.917917 0.644610 0.037851
0.929292 0.644610 0.037851
0.941368 0.644610 0.037851
0.953232 0.644610 0.037851
0.968987 0.644610 0.037851
0.033944 0.675363 0.037851
0.049707 0.675363 0.037851
0.062295 0.675363 0.037851
0.081831 0.675363 0.037851
0.098216 0.675363 0.037851
0.118130 0.675363 0.037851
0.137335 0.675363 0.037851
0.154295 0.675363 0.037851
0.174209 0.675363 0.037851
0.192989 0.675363 0.037851
0.210130 0.675363 0.037851
0.231431 0.675363 0.037851
0.261334 0.675363 0.037851
0.304439 0.675363 0.037851
0.359282 0.675363 0.037851
0.426838 0.675363 0.037851
0.498681 0.675363 0.037851
0.570523 0.675363 0.037851
