assets/luts/GSG_LUT_Cinematic_Desert_Apocolypse.cube
# GSG LUTs 1.0
# Copyright (c) 2016-2020 Greyscalegorilla
# See EULA for licensing and distribution information
# Converted by Briz LUT Converter
LUT_3D_SIZE 8
DOMAIN_MIN 0.000000 0.000000 0.000000
DOMAIN_MAX 0.903226 0.903226 0.903226
0.033944 0.041514 0.037851
0.098216 0.041514 0.037851
0.174209 0.041514 0.037851
0.261334 0.041514 0.037851
0.498681 0.041514 0.037851
0.760747 0.041514 0.037851
0.879649 0.041514 0.037851
0.929292 0.041514 0.037851
0.033944 0.081319 0.037851
0.098216 0.081319 0.037851
0.174209 0.081319 0.037851
0.261334 0.081319 0.037851
0.498681 0.081319 0.037851
0.760747 0.081319 0.037851
0.879649 0.081319 0.037851
0.929292 0.081319 0.037851
0.033944 0.110229 0.037851
0.098216 0.110229 0.037851
0.174209 0.110229 0.037851
0.261334 0.110229 0.037851
0.498681 0.110229 0.037851
0.760747 0.110229 0.037851
0.879649 0.110229 0.037851
0.929292 0.110229 0.037851
0.033944 0.202576 0.037851
0.098216 0.202576 0.037851
0.174209 0.202576 0.037851
0.261334 0.202576 0.037851
0.498681 0.202576 0.037851
0.760747 0.202576 0.037851
0.879649 0.202576 0.037851
0.929292 0.202576 0.037851
0.033944 0.357218 0.037851
0.098216 0.357218 0.037851
0.174209 0.357218 0.037851
0.261334 0.357218 0.037851
0.498681 0.357218 0.037851
0.760747 0.357218 0.037851
0.879649 0.357218 0.037851
0.929292 0.357218 0.037851
0.033944 0.505967 0.037851
0.098216 0.505967 0.037851
0.174209 0.505967 0.037851
0.261334 0.505967 0.037851
0.498681 0.505967 0.037851
0.760747 0.505967 0.037851
0.879649 0.505967 0.037851
0.929292 0.505967 0.037851
0.033944 0.597597 0.037851
0.098216 0.597597 0.037851
0.174209 0.597597 0.037851
0.261334 0.597597 0.037851
0.498681 0.597597 0.037851
0.760747 0.597597 0.037851
0.879649 0.597597 0.037851
0.929292 0.597597 0.037851
0.033944 0.707157 0.037851
0.098216 0.707157 0.037851
0.174209 0.707157 0.037851
0.261334 0.707157 0.037851
0.498681 0.707157 0.037851
0.760747 0.707157 0.037851
0.879649 0.707157 0.037851
0.929292 0.707157 0.037851
0.033944 0.041514 0.069124
0.098216 0.041514 0.069124
0.174209 0.041514 0.069124
0.261334 0.041514 0.069124
0.498681 0.041514 0.069124
0.760747 0.041514 0.069124
0.879649 0.041514 0.069124
0.929292 0.041514 0.069124
0.033944 0.081319 0.069124
0.098216 0.081319 0.069124
0.174209 0.081319 0.069124
0.261334 0.081319 0.069124
0.498681 0.081319 0.069124
0.760747 0.081319 0.069124
0.879649 0.081319 0.069124
0.929292 0.081319 0.069124
0.033944 0.110229 0.069124
0.098216 0.110229 0.069124
0.174209 0.110229 0.069124
0.261334 0.110229 0.069124
0.498681 0.110229 0.069124
0.760747 0.110229 0.069124
0.879649 0.110229 0.069124
0.929292 0.110229 0.069124
0.033944 0.202576 0.069124
0.098216 0.202576 0.069124
0.174209 0.202576 0.069124
0.261334 0.202576 0.069124
0.498681 0.202576 0.069124
0.760747 0.202576 0.069124
0.879649 0.202576 0.069124
0.929292 0.202576 0.069124
0.033944 0.357218 0.069124
0.098216 0.357218 0.069124
0.174209 0.357218 0.069124
0.261334 0.357218 0.069124
0.498681 0.357218 0.069124
0.760747 0.357218 0.069124
0.879649 0.357218 0.069124
0.929292 0.357218 0.069124
0.033944 0.505967 0.069124
0.098216 0.505967 0.069124
0.174209 0.505967 0.069124
0.261334 0.505967 0.069124
0.498681 0.505967 0.069124
0.760747 0.505967 0.069124
0.879649 0.505967 0.069124
0.929292 0.505967 0.069124
0.033944 0.597597 0.069124
0.098216 0.597597 0.069124
0.174209 0.597597 0.069124
0.261334 0.597597 0.069124
0.498681 0.597597 0.069124
0.760747 0.597597 0.069124
0.879649 0.597597 0.069124
0.929292 0.597597 0.069124
0.033944 0.707157 0.069124
0.098216 0.707157 0.069124
0.174209 0.707157 0.069124
0.261334 0.707157 0.069124
0.498681 0.707157 0.069124
0.760747 0.707157 0.069124
0.879649 0.707157 0.069124
0.929292 0.707157 0.069124
0.033944 0.041514 0.093836
0.098216 0.041514 0.093836
0.174209 0.041514 0.093836
0.261334 0.041514 0.093836
0.498681 0.041514 0.093836
0.760747 0.041514 0.093836
0.879649 0.041514 0.093836
0.929292 0.041514 0.093836
0.033944 0.081319 0.093836
0.098216 0.081319 0.093836
0.174209 0.081319 0.093836
0.261334 0.081319 0.093836
0.498681 0.081319 0.093836
0.760747 0.081319 0.093836
0.879649 0.081319 0.093836
0.929292 0.081319 0.093836
0.033944 0.110229 0.093836
0.098216 0.110229 0.093836
0.174209 0.110229 0.093836
0.261334 0.110229 0.093836
0.498681 0.110229 0.093836
0.760747 0.110229 0.093836
0.879649 0.110229 0.093836
0.929292 0.110229 0.093836
0.033944 0.202576 0.093836
0.098216 0.202576 0.093836
0.174209 0.202576 0.093836
0.261334 0.202576 0.093836
0.498681 0.202576 0.093836
0.760747 0.202576 0.093836
0.879649 0.202576 0.093836
0.929292 0.202576 0.093836
0.033944 0.357218 0.093836
0.098216 0.357218 0.093836
0.174209 0.357218 0.093836
0.261334 0.357218 0.093836
0.498681 0.357218 0.093836
0.760747 0.357218 0.093836
0.879649 0.357218 0.093836
0.929292 0.357218 0.093836
0.033944 0.505967 0.093836
0.098216 0.505967 0.093836
0.174209 0.505967 0.093836
0.261334 0.505967 0.093836
0.498681 0.505967 0.093836
0.760747 0.505967 0.093836
0.879649 0.505967 0.093836
0.929292 0.505967 0.093836
0.033944 0.597597 0.093836
0.098216 0.597597 0.093836
0.174209 0.597597 0.093836
0.261334 0.597597 0.093836
0.498681 0.597597 0.093836
0.760747 0.597597 0.093836
0.879649 0.597597 0.093836
0.929292 0.597597 0.093836
0.033944 0.707157 0.093836
0.098216 0.707157 0.093836
0.174209 0.707157 0.093836
0.261334 0.707157 0.093836
0.498681 0.707157 0.093836
0.760747 0.707157 0.093836
0.879649 0.707157 0.093836
0.929292 0.707157 0.093836
0.033944 0.041514 0.137871
0.098216 0.041514 0.137871
0.174209 0.041514 0.137871
0.261334 0.041514 0.137871
0.498681 0.041514 0.137871
0.760747 0.041514 0.137871
0.879649 0.041514 0.137871
0.929292 0.041514 0.137871
0.033944 0.081319 0.137871
0.098216 0.081319 0.137871
0.174209 0.081319 0.137871
0.261334 0.081319 0.137871
0.498681 0.081319 0.137871
0.760747 0.081319 0.137871
0.879649 0.081319 0.137871
0.929292 0.081319 0.137871
0.033944 0.110229 0.137871
0.098216 0.110229 0.137871
0.174209 0.110229 0.137871
0.261334 0.110229 0.137871
0.498681 0.110229 0.137871
0.760747 0.110229 0.137871
0.879649 0.110229 0.137871
0.929292 0.110229 0.137871
0.033944 0.202576 0.137871
0.098216 0.202576 0.137871
0.174209 0.202576 0.137871
0.261334 0.202576 0.137871
0.498681 0.202576 0.137871
0.760747 0.202576 0.137871
0.879649 0.202576 0.137871
0.929292 0.202576 0.137871
0.033944 0.357218 0.137871
0.098216 0.357218 0.137871
0.174209 0.357218 0.137871
0.261334 0.357218 0.137871
0.498681 0.357218 0.137871
0.760747 0.357218 0.137871
0.879649 0.357218 0.137871
0.929292 0.357218 0.137871
0.033944 0.505967 0.137871
0.098216 0.505967 0.137871
0.174209 0.505967 0.137871
0.261334 0.505967 0.137871
0.498681 0.505967 0.137871
0.760747 0.505967 0.137871
0.879649 0.505967 0.137871
0.929292 0.505967 0.137871
0.033944 0.597597 0.137871
0.098216 0.597597 0.137871
0.174209 0.597597 0.137871
0.261334 0.597597 0.137871
0.498681 0.597597 0.137871
0.760747 0.597597 0.137871
0.879649 0.597597 0.137871
0.929292 0.597597 0.137871
0.033944 0.707157 0.137871
0.098216 0.707157 0.137871
0.174209 0.707157 0.137871
0.261334 0.707157 0.137871
0.498681 0.707157 0.137871
0.760747 0.707157 0.137871
0.879649 0.707157 0.137871
0.929292 0.707157 0.137871
0.033944 0.041514 0.235047
0.098216 0.041514 0.235047
0.174209 0.041514 0.235047
0.261334 0.041514 0.235047
0.498681 0.041514 0.235047
0.760747 0.041514 0.235047
0.879649 0.041514 0.235047
0.929292 0.041514 0.235047
0.033944 0.081319 0.235047
0.098216 0.081319 0.235047
0.174209 0.081319 0.235047
0.261334 0.081319 0.235047
0.498681 0.081319 0.235047
0.760747 0.081319 0.235047
0.879649 0.081319 0.235047
0.929292 0.081319 0.235047
0.033944 0.110229 0.235047
0.098216 0.110229 0.235047
0.174209 0.110229 0.235047
0.261334 0.110229 0.235047
0.498681 0.110229 0.235047
0.760747 0.110229 0.235047
0.879649 0.110229 0.235047
0.929292 0.110229 0.235047
0.033944 0.202576 0.235047
0.098216 0.202576 0.235047
0.174209 0.202576 0.235047
0.261334 0.202576 0.235047
0.498681 0.202576 0.235047
0.760747 0.202576 0.235047
0.879649 0.202576 0.235047
0.929292 0.202576 0.235047
0.033944 0.357218 0.235047
0.098216 0.357218 0.235047
0.174209 0.357218 0.235047
0.261334 0.357218 0.235047
0.498681 0.357218 0.235047
0.760747 0.357218 0.235047
0.879649 0.357218 0.235047
0.929292 0.357218 0.235047
0.033944 0.505967 0.235047
0.098216 0.505967 0.235047
0.174209 0.505967 0.235047
0.261334 0.505967 0.235047
0.498681 0.505967 0.235047
0.760747 0.505967 0.235047
0.879649 0.505967 0.235047
0.929292 0.505967 0.235047
0.033944 0.597597 0.235047
0.098216 0.597597 0.235047
0.174209 0.597597 0.235047
0.261334 0.597597 0.235047
0.498681 0.597597 0.235047
0.760747 0.597597 0.235047
0.879649 0.597597 0.235047
0.929292 0.597597 0.235047
0.033944 0.707157 0.235047
0.098216 0.707157 0.235047
0.174209 0.707157 0.235047
0.261334 0.707157 0.235047
0.498681 0.707157 0.235047
0.760747 0.707157 0.235047
0.879649 0.707157 0.235047
0.929292 0.707157 0.235047
0.033944 0.041514 0.307763
0.098216 0.041514 0.307763
0.174209 0.041514 0.307763
0.261334 0.041514 0.307763
0.498681 0.041514 0.307763
0.760747 0.041514 0.307763
0.879649 0.041514 0.307763
0.929292 0.041514 0.307763
0.033944 0.081319 0.307763
0.098216 0.081319 0.307763
0.174209 0.081319 0.307763
0.261334 0.081319 0.307763
0.498681 0.081319 0.307763
0.760747 0.081319 0.307763
0.879649 0.081319 0.307763
0.929292 0.081319 0.307763
0.033944 0.110229 0.307763
0.098216 0.110229 0.307763
0.174209 0.110229 0.307763
0.261334 0.110229 0.307763
0.498681 0.110229 0.307763
0.760747 0.110229 0.307763
0.879649 0.110229 0.307763
0.929292 0.110229 0.307763
0.033944 0.202576 0.307763
0.098216 0.202576 0.307763
0.174209 0.202576 0.307763
0.261334 0.202576 0.307763
0.498681 0.202576 0.307763
0.760747 0.202576 0.307763
0.879649 0.202576 0.307763
0.929292 0.202576 0.307763
0.033944 0.357218 0.307763
0.098216 0.357218 0.307763
0.174209 0.357218 0.307763
0.261334 0.357218 0.307763
0.498681 0.357218 0.307763
0.760747 0.357218 0.307763
0.879649 0.357218 0.307763
0.929292 0.357218 0.307763
0.033944 0.505967 0.307763
0.098216 0.505967 0.307763
0.174209 0.505967 0.307763
0.261334 0.505967 0.307763
0.498681 0.505967 0.307763
0.760747 0.505967 0.307763
0.879649 0.505967 0.307763
0.929292 0.505967 0.307763
0.033944 0.597597 0.307763
0.098216 0.597597 0.307763
0.174209 0.597597 0.307763
0.261334 0.597597 0.307763
0.498681 0.597597 0.307763
0.760747 0.597597 0.307763
0.879649 0.597597 0.307763
0.929292 0.597597 0.307763
0.033944 0.707157 0.307763
0.098216 0.707157 0.307763
0.174209 0.707157 0.307763
0.261334 0.707157 0.307763
0.498681 0.707157 0.307763
0.760747 0.707157 0.307763
0.879649 0.707157 0.307763
0.929292 0.707157 0.307763
0.033944 0.041514 0.412438
0.098216 0.041514 0.412438
0.174209 0.041514 0.412438
0.261334 0.041514 0.412438
0.498681 0.041514 0.412438
0.760747 0.041514 0.412438
0.879649 0.041514 0.412438
0.929292 0.041514 0.412438
0.033944 0.081319 0.412438
0.098216 0.081319 0.412438
0.174209 0.081319 0.412438
0.261334 0.081319 0.412438
0.498681 0.081319 0.412438
0.760747 0.081319 0.412438
0.879649 0.081319 0.412438
0.929292 0.081319 0.412438
0.033944 0.110229 0.412438
0.098216 0.110229 0.412438
0.174209 0.110229 0.412438
0.261334 0.110229 0.412438
0.498681 0.110229 0.412438
0.760747 0.110229 0.412438
0.879649 0.110229 0.412438
0.929292 0.110229 0.412438
0.033944 0.202576 0.412438
0.098216 0.202576 0.412438
0.174209 0.202576 0.412438
0.261334 0.202576 0.412438
0.498681 0.202576 0.412438
0.760747 0.202576 0.412438
0.879649 0.202576 0.412438
0.929292 0.202576 0.412438
0.033944 0.357218 0.412438
0.098216 0.357218 0.412438
0.174209 0.357218 0.412438
0.261334 0.357218 0.412438
0.498681 0.357218 0.412438
0.760747 0.357218 0.412438
0.879649 0.357218 0.412438
0.929292 0.357218 0.412438
0.033944 0.505967 0.412438
0.098216 0.505967 0.412438
0.174209 0.505967 0.412438
0.261334 0.505967 0.412438
0.498681 0.505967 0.412438
0.760747 0.505967 0.412438
0.879649 0.505967 0.412438
0.929292 0.505967 0.412438
0.033944 0.597597 0.412438
0.098216 0.597597 0.412438
0.174209 0.597597 0.412438
0.261334 0.597597 0.412438
0.498681 0.597597 0.412438
0.760747 0.597597 0.412438
0.879649 0.597597 0.412438
0.929292 0.597597 0.412438
0.033944 0.707157 0.412438
0.098216 0.707157 0.412438
0.174209 0.707157 0.412438
0.261334 0.707157 0.412438
0.498681 0.707157 0.412438
0.760747 0.707157 0.412438
0.879649 0.707157 0.412438
0.929292 0.707157 0.412438
0.033944 0.041514 0.533262
0.098216 0.041514 0.533262
0.174209 0.041514 0.533262
0.261334 0.041514 0.533262
0.498681 0.041514 0.533262
0.760747 0.041514 0.533262
0.879649 0.041514 0.533262
0.929292 0.041514 0.533262
0.033944 0.081319 0.533262
0.098216 0.081319 0.533262
0.174209 0.081319 0.533262
0.261334 0.081319 0.533262
0.498681 0.081319 0.533262
0.760747 0.081319 0.533262
0.879649 0.081319 0.533262
0.929292 0.081319 0.533262
0.033944 0.110229 0.533262
0.098216 0.110229 0.533262
0.174209 0.110229 0.533262
0.261334 0.110229 0.533262
0.498681 0.110229 0.533262
0.760747 0.110229 0.533262
0.879649 0.110229 0.533262
0.929292 0.110229 0.533262
0.033944 0.202576 0.533262
0.098216 0.202576 0.533262
0.174209 0.202576 0.533262
0.261334 0.202576 0.533262
0.498681 0.202576 0.533262
0.760747 0.202576 0.533262
0.879649 0.202576 0.533262
0.929292 0.202576 0.533262
0.033944 0.357218 0.533262
0.098216 0.357218 0.533262
0.174209 0.357218 0.533262
0.261334 0.357218 0.533262
0.498681 0.357218 0.533262
0.760747 0.357218 0.533262
0.879649 0.357218 0.533262
0.929292 0.357218 0.533262
0.033944 0.505967 0.533262
0.098216 0.505967 0.533262
0.174209 0.505967 0.533262
0.261334 0.505967 0.533262
0.498681 0.505967 0.533262
0.760747 0.505967 0.533262
0.879649 0.505967 0.533262
0.929292 0.505967 0.533262
0.033944 0.597597 0.533262
0.098216 0.597597 0.533262
0.174209 0.597597 0.533262
0.261334 0.597597 0.533262
0.498681 0.597597 0.533262
0.760747 0.597597 0.533262
0.879649 0.597597 0.533262
0.929292 0.597597 0.533262
0.033944 0.707157 0.533262
0.098216 0.707157 0.533262
0.174209 0.707157 0.533262
0.261334 0.707157 0.533262
0.498681 0.707157 0.533262
0.760747 0.707157 0.533262
0.879649 0.707157 0.533262
0.929292 0.707157 0.533262
